exported-svg/edit-2.svg

<svg height="24" viewBox="0 0 24 24" width="24" xmlns="http://www.w3.org/2000/svg"><path d="m16.1464466 3.14644661c.1952622-.19526215.5118446-.19526215.7071068 0l5 5c.1952621.19526215.1952621.51184463 0 .70710678l-13.00000001 13.00000001c-.09376819.0937682-.22094515.1464466-.35355339.1464466h-5c-.27614237 0-.5-.2238576-.5-.5v-5c0-.1326082.05267842-.2597852.14644661-.3535534zm.3535534 1.06066017-12.5 12.50000002v4.2928932h4.29289322l12.49999998-12.5z"/></svg>

<?xml version="1.0" encoding="UTF-8"?>
<svg width="24px" height="24px" viewBox="0 0 24 24" version="1.1" xmlns="http://www.w3.org/2000/svg" xmlns:xlink="http://www.w3.org/1999/xlink">
    <!-- Generator: Sketch 55.2 (78181) - https://sketchapp.com -->
    <title>edit-2</title>
    <desc>Created with Sketch.</desc>
    <g id="edit-2" stroke="none" stroke-width="1" fill="none" fill-rule="evenodd">
        <path d="M16.1464466,3.14644661 C16.3417088,2.95118446 16.6582912,2.95118446 16.8535534,3.14644661 L21.8535534,8.14644661 C22.0488155,8.34170876 22.0488155,8.65829124 21.8535534,8.85355339 L8.85355339,21.8535534 C8.7597852,21.9473216 8.63260824,22 8.5,22 L3.5,22 C3.22385763,22 3,21.7761424 3,21.5 L3,16.5 C3,16.3673918 3.05267842,16.2402148 3.14644661,16.1464466 L16.1464466,3.14644661 Z M16.5,4.20710678 L4,16.7071068 L4,21 L8.29289322,21 L20.7928932,8.5 L16.5,4.20710678 Z" id="Shape" fill="#000000" fill-rule="nonzero"></path>
    </g>
</svg>
